X: 4984
T: Brendan Ring's
R: reel
M: 4/4
K: Dmajor
|:d2ce d~A3|BGED CDEC|Ddde d~A3|Bdce d3A|d2ce d~A3|
BGED CDEG|1 FA~A2 ~G3B|Aeed cdec:|2 FA~A2 BGED|CDEC D2 z2||
|:~e3d cded|cAAB cBcd|~e3d cded|cAGE AD~D2|
~e3d cded|cAAB cBcd|~e3d e2de|cAGE AD~D2:|
|:AD~D2 ADBD|A2GB AGFA|GE~E2 GEBE|~B3A BdAG|
AD~D2 dDBD|A2GB AGFA|G2EG BGED|CDEC D2dB:|

